X: 100356
P: AERIAL QUADRILLE Part 3.
C: J. Scott, Sandyholm, Lockerbie
R: jig
B: K\"ohler's Violin Repository, v.3, 1885 p.241 #3
Z: 2012 John Chambers <jc:trillian.mit.edu>
M: 6/8
L: 1/8
K: G
[|\
vD3 DGA | B3- BcB | A3- A^GA | d3- d^cd |\
(b2a) gfe | dGA Bcd | fed cBA | (G2B) G2 ||
K: D
(F/G/) |\
ABA Ade | fff faa | eee e^de | fdB AFG |\
ABc def | Bcd efg | fba gfe | dDD DDD "^D.C."||
"^*".A |\
.Az .d .^cz .d | .Az .f .=fz .^f | .ez .g .^cz .e | (dcB) (.A2.A) |\
.Az .d .^cz .d | .Az.f .=fz .^f | .ez .g .Bz .^c | d3- d3 "^D.C."|]
%%text * Staccato -- Heel of Bow, Nos. 1 and 3.

%%sep 2 1 500

